!!!COA:	Josquin des Prez
!!!CDT:	~1450-1521/08/27
!!!OTL@@LAT:	Qui edunt me
!!!AGN:	Motet
!!!SCT:	NJE 14.11
!!!SCA:	New Josquin Edition 14.11
!!!voices:	2
**kern	**kern
*staff2	*staff1
*Ivox	*Ivox
*I"Bassus	*I"Tenor
*I'B	*I'T
*clefF4	*clefGv2
*k[]	*k[]
*M2/1	*M2/1
*met(C|)	*met(C|)
=1-	=1-
0GG	0r
=2	=2
1GG	0r
1GG	.
=3	=3
1.C	0G
2C/	.
=4	=4
2C/	1G
2C/	.
2BB/	1G
2BB/	.
=5	=5
0AA	1.c
.	2c\
=6	=6
1r	2c\
.	2c\
1GG	2B\
.	2B\
=7	=7
2C/	1A
2C/	.
1BB	2r
.	2G/
=8	=8
1AA	2c\
.	2c\
[1D	1B
=9	=9
2D\]	1A
2C/	.
2BB/	[1d
2AA/	.
=10	=10
1GG	2d\]
.	2c\
1r	2B\
.	2A/
=11	=11
1G	1G
2G\	2r
2G\	2d\
=12	=12
2F\	2d\
2D\	2d\
1F	2c\
.	2A/
=13	=13
4C/	1c
4D\	.
4E\	.
4F\	.
2G\	4G/
.	4A/
4GG/	4B\
4AA/	4c\
=14	=14
4BB/	2d\
4C/	.
2.D\	4D/
.	4E/
.	4F/
4C/	4G/
4AA/	[2A/
4BB/	.
=15	=15
4C/	2A/]
4D\	.
2.E\	2.G/
4D\	4F/
[2D\	4E/
.	4D/
=16	=16
2D\]	1E
2C#i/	.
[1D	2D/
.	[2A/
=17	=17
1D]	2A/]
.	2A/
1r	2c\
.	2c\
=18	=18
1r	1B
2r	2A/
[2D\	4D/
.	4E/
=19	=19
2D\]	4F/
.	4G/
2D\	2.A/
2F\	.
.	4G/
2F\	4A/
.	4B\
=20	=20
1E	4c\
.	4d\
.	4e\
.	4c\
2D\	1d
4GG/	.
4AA/	.
=21	=21
4BB/	2.D/
4C/	.
2.D\	.
.	4E/
.	4F/
4C/	4G/
4D\	[2A/
4E\	.
=22	=22
4F\	4A/]
4G\	4B\
4A\	4c\
4F\	4A/
4G\	4B\
4F\	4A/
4E\	[2d\
4D\	.
=23	=23
1E	2d\]
.	2c#i\
2D\	1d
2G\	.
=24	=24
2G\	2r
2G\	2d\
1F	2d\
.	2d\
=25	=25
2E\	1e
2.A\	.
.	2c\
4G\	.
4F\	2d\
4E\	.
=26	=26
2D\	2B\
2.A\	2.c\
4G\	4B\
[2G\	4A/
.	4G/
=27	=27
2G\]	1A
2F#i\	.
1G	2r
.	[2G/
=28	=28
2r	4G/]
.	4A/
2G\	4B\
.	4c\
2G\	2d\
2G\	[2e\
=29	=29
1A	4e\]
.	4d\
.	4c\
.	4B\
2F\	2A/
2G\	2B\
=30	=30
2E\	4c\
.	4B\
2.F\	4A/
.	4G/
.	4A/
4E\	4G/
4D\	[2c\
4C/	.
=31	=31
1D	2c\]
.	2B\
1Cl	1cl
==	==
*-	*-
!!!RDF**kern: l=long note in original notation
!!!RDF**kern: i=editorial accidental
!!!ENC:	Will Watson 08/07/2011
!!!END:	2011/08/07/
!!!EED:	Jesse Rodin
!!!EEV:	2011/08/18/
!!attribution-level@Jos: 4 (questionable)
!!!ONB:	Translated from MusicXML and edited on 2011/08/18/ by Craig Sapp
!!muse2ps: C^@{COM}{/}@{COA}?\n@{SCT}^I150v100,150Q16
